Adwaita++-Dark/actions/16/image-filter.svg

<svg height="16" width="16" xmlns="http://www.w3.org/2000/svg">
  <g fill="#e6ddff">
    <path d="m1.5 14.5c.57-2.7 1.26-5.35 6.5-6.5 5.22-.96 5.09-3.65 6-6v12.5z" opacity=".3"/>
    <path d="m13.47 1c-.264 0-.47.2638-.47.5333.02 1.1821-.04 2.3-.69 3.22-.64.93-1.91 1.74-4.44 2.25-2.72.55-4.34 1.69-5.31 3.0597-.96 1.38-1.28 2.94-1.56 4.29l1 .21c.28-1.35.59-2.74 1.41-3.9.81-1.1597 2.12-2.1497 4.65-2.6597 2.68-.54 4.23-1.49 5.06-2.69.84-1.19.88-2.57.88-3.81.002-.3014-.231-.5033-.53-.5033z"/>
    <path d="m1 1h2v14h-2z"/>
    <path d="m13-15h2v14h-2z" transform="rotate(90)"/>
  </g>
</svg>

<svg xmlns="http://www.w3.org/2000/svg" width="16" height="16" version="1.1">
 <path style="opacity:0.3;fill:#E6DDFF" d="M 1.5,14.5 C 2.07,11.8 2.76,9.15 8,8 13.22,7.04 13.09,4.35 14,2 V 14.5 Z"/>
 <path style="fill:#E6DDFF" d="M 13.47,1 C 13.206,1 13,1.2638 13,1.5333 13.02,2.7154 12.96,3.8333 12.31,4.7533 11.67,5.6833 10.4,6.4933 7.87,7.0033 5.15,7.5533 3.53,8.6933 2.56,10.063 1.6,11.443 1.28,13.003 1,14.353 L 2,14.563 C 2.28,13.213 2.59,11.823 3.41,10.663 4.22,9.5033 5.53,8.5133 8.06,8.0033 10.74,7.4633 12.29,6.5133 13.12,5.3133 13.96,4.1233 14,2.7433 14,1.5033 14.002,1.2019 13.769,1 13.47,1 Z"/>
 <path style="fill:#E6DDFF" d="M 1,1 H 3 V 15 H 1 Z"/>
 <path style="fill:#E6DDFF" d="M 13,-15 H 15 V -1 H 13 Z" transform="rotate(90)"/>
</svg>
